X:1
T:Title
%%score { ( 1 4 ) | ( 2 3 ) }
L:1/8
Q:1/4=100
M:4/4
K:G
V:1 treble nm="Grand Piano"
V:4 treble 
V:2 bass 
V:3 bass 
V:1
 [B,DB][B,DB][B,DA][B,DA] [B,DG][B,DG][B,DB][B,DG] | [B,DF]2 [B,E]2 [CE]4 | %2
w: Ira~B.~Wilson * * * * * * *||
 [B,D][B,E][DF][DG] [DFd]2 [DF]2 | [CD][CF][CA]c [DB]4 | %4
w: ||
 [B,DB][B,DB][B,DA][B,DA] [B,DG][B,DG][B,DB][B,DG] | [B,DF]2 [B,E]2 [B,E]4 | %6
w: ||
 [B,D][B,D][DG][DE] [DF]2 [DA]2 |[M:7/8] G z B ^c [Fd]3 |[M:1/4] [GBd][GB^d] | %9
w: |||
[M:4/4] [EGBe]2 [DGBd]2 [Ec]2 [DEB]2 | [^CEB][CE][CE][CE] [CE]2 [CA][CE] | %11
w: ||
 [CG]2 [CF]2 [CF]2 [CA]2 | [B,DA]GGA B2 d^d | eedB [EBe]2 [E^Gd][DGB] | BBAE [^CGB]2 [CA][CG] | %15
w: ||||
 [Dd]2 D2 B2 A2 | [B,G]6 z2 |] %17
w: ||
V:2
 [G,,G,]2 [D,,D,]2 [G,,G,]2 [D,,D,]2 | [G,,G,]2 [D,,D,]2 [G,,G,]2 [D,,D,]2 | %2
 [G,,G,]2 [B,,B,]2 [A,,A,]2 [D,A,C]2 | [F,,F,]2 z E G,,B,,E,D, | %4
 [G,,G,]2 [D,,D,]2 [G,,G,]2 [D,,D,]2 | [G,,G,]2 [D,,D,]2 [G,,G,]2 [D,,D,]2 | %6
 [G,,G,]2 [B,,B,]2 [A,,A,]2 [A,,F,]2 |[M:7/8] z A [A,,A,]2 [D,A,]3 |[M:1/4] D^D | %9
[M:4/4] G,,D,G,D, ^G,,E,^G,E, | A,,E,A,E, A,,A,E,G, | D,,D,A,D, D,,D,F,D, | %12
 G,,[D,B,D][G,B,D][D,C][K:treble] [G,D]2 [DB][^DB] | [^G,,^G,]2 [E,,E,]2 [G,,G,]2 [E,,E,]2 | %14
 [A,,A,]2 [E,,E,]2 [A,,A,]2 [E,,E,][^D,,^D,] | [D,,D,]2 [D,G,B,]2 [D,E,^C]2 [D,F,=C]2 | %16
 [G,,G,]2 D,2 G,,2 z2 |] %17
V:3
 x8 | x8 | x8 | z2 [D,,D,]2 z4 | x8 | x8 | x8 |[M:7/8] A,,2 z z z z2 |[M:1/4] x2 |[M:4/4] x8 | x8 | %11
 x8 | x4[K:treble] x4 | x8 | x8 | x8 | x8 |] %17
V:4
 x8 | x8 | x8 | x8 | x8 | x8 | x8 |[M:7/8] [A,^C]2 G2 z z2 |[M:1/4] x2 |[M:4/4] x8 | x8 | x8 | x8 | %13
 [EB]2 [E^G]2 z4 | [^CG]2 [CG]2 z4 | x8 | x8 |] %17

